icon/pk/carousel.svg

<svg viewBox="0 0 48 48" fill="none" xmlns="http://www.w3.org/2000/svg" height="1em" width="1em">
  <path d="M4 11C4 9.89543 4.89543 9 6 9H42C43.1046 9 44 9.89543 44 11V35C44 36.1046 43.1046 37 42 37H6C4.89543 37 4 36.1046 4 35V11Z" fill="#2F88FF" stroke="black" stroke-width="4" stroke-linejoin="round"/>
  <path d="M28 17H20V29H28V17Z" fill="#43CCF8" stroke="white" stroke-width="4" stroke-linejoin="round"/>
  <path d="M44 17H36V29H44" stroke="white" stroke-width="4" stroke-linecap="round" stroke-linejoin="round"/>
  <path d="M4 17H12V29H4" stroke="white" stroke-width="4" stroke-linecap="round" stroke-linejoin="round"/>
  <path d="M4 13V33" stroke="black" stroke-width="4" stroke-linecap="round" stroke-linejoin="round"/>
  <path d="M44 13V33" stroke="black" stroke-width="4" stroke-linecap="round" stroke-linejoin="round"/>
</svg>

<svg width="48" height="48" fill="none" xmlns="http://www.w3.org/2000/svg"><path d="M4 11a2 2 0 0 1 2-2h36a2 2 0 0 1 2 2v24a2 2 0 0 1-2 2H6a2 2 0 0 1-2-2V11Z" fill="#2F88FF" stroke="#000" stroke-width="4" stroke-linejoin="round"/><path d="M28 17h-8v12h8V17Z" fill="#43CCF8" stroke="#fff" stroke-width="4" stroke-linejoin="round"/><path d="M44 17h-8v12h8M4 17h8v12H4" stroke="#fff" stroke-width="4" stroke-linecap="round" stroke-linejoin="round"/><path d="M4 13v20M44 13v20" stroke="#000" stroke-width="4" stroke-linecap="round" stroke-linejoin="round"/></svg>
